!!!!SEGMENT: pl-kk--kk-i-386--003-003_anonim--missa-3tia-graduale-alleluia.krn
!!!cenid: 18xx:4518
!!!COM: Anonim
!!!COM-rismID: pe30004985
!!!CDT:
!!!CNT:
!!!OPR: Missa 3tia
!!!OTL: Graduale/Alleluia
!!!OMV: 003
!!!PDT:
!!!AGN: Sacred
!!!YEC: Copyright 2022 Narodowy Instytut Fryderyka Chopina (https://polishscores.org)
!!!YEM: License CC-BY-4.0 (https://creativecommons.org/licenses/by/4.0)
!!!SMS-siglum: PL-Kk
!!!SMS-shelfmark: Kk.I.386
!!!SMS-variant:
!!!SMS-altvar:
!!!SMS-shelfwork: 003-003 M
!!!NIFC-rismSourceID: 1001218240
!!!NIFC-rismChildID: 1001218244
!!!NIFC-islandoraID: pl-kk:16060
!!!URL-pdf-islandora: https://repozytorium.nifc.pl/islandora/object/pl-kk%3A16060/datastream/PDF/view
!!!URL-scan: https://polish.musicsources.pl/pl/lokalizacje/galeria/rekopisy/7134/3 @EN{Scan on Polish Music Sources Website} @PL{Skany w portalu Dziedzictwo Muzyki Polskiej w otwartym dostępie}
!!!IIIF:
!!!ONB-nifc: UWAGA: Części Missy 3tia: Kyrie, Gloria, Graduale, Offertorium, Sanctus, Benedictus, Agnus. Zakres skanów: S -9-11, A – 19-21, T – 29-31, B – 39-41
!!!AIN: 1 alto 1 bass 1 soprn 1 tenor
!!!key:
**kern	**text	**kern	**text	**kern	**text	**kern	**text
*part4	*part4	*part3	*part3	*part2	*part2	*part1	*part1
*staff4	*staff4	*staff3	*staff3	*staff2	*staff2	*staff1	*staff1
*I"Basso.	*	*I"Tenore.	*	*I"Alto.	*	*I"Soprano.	*
*I'B	*	*I'T	*	*I'A	*	*I'S	*
*Ibass	*	*Itenor	*	*Ialto	*	*Isoprn	*
*ICvox	*	*ICvox	*	*ICvox	*	*ICvox	*
*clefF4	*	*clefC4	*	*clefC3	*	*clefC1	*
*k[]	*	*k[]	*	*k[]	*	*k[]	*
*C:	*	*C:	*	*C:	*	*C:	*
*M3/2	*	*M3/2	*	*M3/2	*	*M3/2	*
=1	=1	=1	=1	=1	=1	=1	=1
!LO:TX:a:t=in C.	!	!	!	!	!	!	!
2r	.	2r	.	2r	.	2r	.
*2\right	*	*2\right	*	*2\right	*	*2\right	*
2c\	Al-	2e\	al-	2g\	al-	2cc\	Al-
2G\	-le-	2d\	-le-	2g\	-le-	2b\	-le-
=2	=2	=2	=2	=2	=2	=2	=2
2E/	-lu-	2e\	-lu-	2g\	-lu-	2cc\	-lu-
2C/	-ia	2e\	-ia	2g\	-ia	2cc\	-ia
2F\	al-	2A\	al-	2f\	al-	2cc\	al-
=3	=3	=3	=3	=3	=3	=3	=3
2.C/	-le-	2.e\	-le-	2.g\	-le-	2.cc\	-le-
4D/	.	4d\	.	4f\	.	4b\	.
4E\	.	2c\	-lu-	4g\	.	4cc\	.
4F\	.	.	.	4a\	-lu-	4dd\	-lu-
=4	=4	=4	=4	=4	=4	=4	=4
2G\	-lu-	2B\	-ia	2g\	-ia	2dd\	-ia
2G\	-ia	2d\	al-	2g\	al-	2b\	al-
2D\	Al-	2d\	-le-	2f#X\	-le-	2a\	-le-
=5	=5	=5	=5	=5	=5	=5	=5
2BB/	-le-	2d\	-lu-	2g\	-lu-	2b\	-lu-
2GG/	.	2d\	-ia	2g\	-ia	2b\	-ia
4C/	-lu-	2r	.	4g\	al-	2r	.
4C/	-ia	.	.	4g\	-le-	.	.
!LO:LB:g=original	!	!	!	!LO:LB:g=original	!	!	!
=6	=6	=6	=6	=6	=6	=6	=6
2GG/	al-	2r	.	2g\	-lu-	2r	.
2GG/	-le-	2d\	al-	2g\	-ia,	2b\	al-
4GG/	-lu-	2d\	-le-	2r	.	2b\	-le-
4GG/	-ia	.	.	.	.	.	.
!	!	!LO:LB:g=original	!	!	!	!LO:LB:g=original	!
=7	=7	=7	=7	=7	=7	=7	=7
!	!	!	!	!LO:TX:a:t=4.	!	!	!
1G	al-	1e	-lu-	00.r	.	1cc	-lu-
2G\	-le-	2e\	-ia	.	.	2cc\	-ia
=8	=8	=8	=8	=8	=8	=8	=8
2GG/	-lu-	2d\	al-	.	.	2b\	al-
2GG/	.	2d\	-le-	.	.	2b\	-le-
2GG/	-ia	2d\	-lu-	.	.	2b\	-lu-
=9	=9	=9	=9	=9	=9	=9	=9
2G\	al-	2e\	-ia	.	.	2cc\	-ia
2G\	.	2e\	al-	.	.	2cc\	al-
2G\	-le-	2e\	-le-	.	.	2cc\	-le-
=10	=10	=10	=10	=10	=10	=10	=10
1GG	-lu-	1d	-lu-	.	.	1b	-lu-
2GG/	-ia	2d\	-ia,	.	.	2b\	-ia,
=11	=11	=11	=11	=11	=11	=11	=11
!LO:TX:a:t=1.	!	!LO:TX:a:t=1.	!	!	!	!LO:TX:a:t=2	!
1.r	.	1.r	.	2g\	a-	0.r	.
.	.	.	.	2g\	-ve	.	.
.	.	.	.	2g\	ma-	.	.
=12	=12	=12	=12	=12	=12	=12	=12
2C/	a-	2e\	a-	1c	-ri-	.	.
2C/	-ve	2e\	-ve	.	.	.	.
2C/	ma-	2e\	ma-	2c\	-a	.	.
=13	=13	=13	=13	=13	=13	=13	=13
1F	-ri-	1A	-ri-	2.c/	gra-	2c/	A-
.	.	.	.	.	.	2c/	-ve
.	.	.	.	4B/	-ti-	.	.
2F\	-a	2A\	-a	2A/	-a	2c/	ma-
!LO:LB:g=original	!	!	!	!	!	!	!
=14	=14	=14	=14	=14	=14	=14	=14
2.F\	gra-	2.A\	gra-	1d	ple-	1f	-ri-
4E\	-ti-	4G/	-ti-	.	.	.	.
2D\	-a	2F/	-a	2d\	-na	2f/	-a
!	!	!LO:LB:g=original	!	!	!	!	!
=15	=15	=15	=15	=15	=15	=15	=15
1G	ple-	1Bn	ple-	2.d\	Do-	2.d/	gra-
.	.	.	.	4c\	-mi-	4d/	-ti-
2G\	-na	2B\	-na	2B/	-nus	2d/	-a
!	!	!	!	!	!	!LO:LB:g=original	!
=16	=16	=16	=16	=16	=16	=16	=16
2.G\	Do-	2.B\	Do-	1e	te-	1g	ple-
4F\	-mi-	4A\	-mi-	.	.	.	.
2E\	-nus	2G/	-nus	2e\	-cum	2g\	-na
!	!	!	!	!LO:LB:g=original	!	!	!
=17	=17	=17	=17	=17	=17	=17	=17
1A	te-	1c	te-	2e\	be-	2.e/	Do-
.	.	.	.	2d\	-ne-	.	.
.	.	.	.	.	.	4e/	-mi-
2A\	-cum	2c\	-cum	2c\	-dic-	2e/	-nus
=18	=18	=18	=18	=18	=18	=18	=18
2A\	be-	2c\	be-	1f	-ta,	1a	te-
2G\	-ne-	2B\	-ne-	.	.	.	.
2F\	-dic-	2A\	-dic-	2f\	tu	2a\	-cum,
=19	=19	=19	=19	=19	=19	=19	=19
1B	-ta	1G	-ta	2d\	in	2g\	be-
.	.	.	.	2d\	mu-	2g\	-ne-
2B\	tu	2G/	tu,	2d\	-li-	2g\	-dic-
=20	=20	=20	=20	=20	=20	=20	=20
2c\	in	2G/	in	1e	-e-	2cc\	-ta
2B\	mu-	2G/	Mu-	.	.	2cc\	tu
2A\	-li-	2A/	-li-	2f#X\	.	2cc\	in
=21	=21	=21	=21	=21	=21	=21	=21
1G	-e-	1B	-e-	1g	.	1b	mu-
2A\	.	[2A\	.	2e\	.	2cc\	-li-
!LO:LB:g=original	!	!	!	!	!	!	!
=22	=22	=22	=22	=22	=22	=22	=22
2F\	.	2A\]	.	1d	.	2.cc\	-e-
2G\	.	2G/	.	.	.	.	.
.	.	.	.	.	.	4b\	-ri-
!	!	!LO:LB:g=original	!	!	!	!	!
2GG/	-ri-	2G/	-ri-	2d\	-ri-	2b\	-bus
!	!	!	!	!	!	!LO:LB:g=original	!
=23	=23	=23	=23	=23	=23	=23	=23
2C/	-bus.	2G/	-bus	2e\	-bus,	2cc\	et
2r	.	2r	.	2r	.	2cc\	be-
2r	.	2r	.	2r	.	2cc\	-ne-
=24	=24	=24	=24	=24	=24	=24	=24
!LO:TX:a:t=4.	!	!LO:TX:a:t=5.	!	!	!	!	!
00.r	.	00.r	.	2g\	et	4b\	-dic-
.	.	.	.	.	.	4a\	.
.	.	.	.	2g\	be-	4g\	.
.	.	.	.	.	.	4a\	.
.	.	.	.	2g\	-ne-	4b\	.
.	.	.	.	.	.	4cc#X\	.
!	!	!	!	!LO:LB:g=original	!	!	!
=25	=25	=25	=25	=25	=25	=25	=25
.	.	.	.	4fn\	-dic-	2dd\	-tus,
.	.	.	.	4e\	.	.	.
.	.	.	.	4d\	.	2dd\	et
.	.	.	.	4e\	.	.	.
.	.	.	.	4f\	.	4dd\	be-
.	.	.	.	4g\	.	4dd\	-ne-
=26	=26	=26	=26	=26	=26	=26	=26
.	.	.	.	2a\	.	2cc#X\	-dic-
.	.	.	.	2a\	-tus	2cc#\	-tus
.	.	.	.	4a\	be-	2cc#\	et
.	.	.	.	4g\	-ne-	.	.
=27	=27	=27	=27	=27	=27	=27	=27
.	.	.	.	2f\	-dic-	1dd	be-
.	.	.	.	2g\	.	.	.
.	.	.	.	2f\	.	[2dd\	-ne-
=28	=28	=28	=28	=28	=28	=28	=28
2A\	et	1.r	.	1.e	-tus	2dd\]	.
2A\	be-	.	.	.	.	2dd\	-dic-
2A\	-ne-	.	.	.	.	2cc#X\	.
!	!	!	!	!	!	!LO:LB:g=original	!
=29	=29	=29	=29	=29	=29	=29	=29
4F\	-dic-	2d\	et	1f	fru-	1.dd	-tus
4E\	.	.	.	.	.	.	.
4D\	.	2d\	be-	.	.	.	.
4E\	.	.	.	.	.	.	.
4F\	.	2d\	-ne-	2f\	-ctus	.	.
4G\	.	.	.	.	.	.	.
=30	=30	=30	=30	=30	=30	=30	=30
!	!	!	!	!	!	!LO:TX:a:t=1.	!
1A	.	4c#X\	-dic-	1e	ven-	1.r	.
.	.	4B\	.	.	.	.	.
.	.	4A\	.	.	.	.	.
.	.	4B\	.	.	.	.	.
2A\	-tus	4c#\	.	2e\	-tris	.	.
.	.	4A\	.	.	.	.	.
=31	=31	=31	=31	=31	=31	=31	=31
4F\	fru-	1d	.	1.f	fru-	1a	fru-
4E\	.	.	.	.	.	.	.
4D\	.	.	.	.	.	.	.
4E\	.	.	.	.	.	.	.
4F\	.	2d\	-tus	.	.	2a\	-ctus
4D\	-ctus	.	.	.	.	.	.
!LO:LB:g=original	!	!	!	!	!	!	!
=32	=32	=32	=32	=32	=32	=32	=32
1G	ven-	4B\	fru-	1.d	-ctus	1b	ven-
.	.	4A\	.	.	.	.	.
.	.	4G\	.	.	.	.	.
.	.	4A\	.	.	.	.	.
!	!	!LO:LB:g=original	!	!	!	!	!
2G\	-tris	4B\	.	.	.	2b\	-tris
.	.	4G\	.	.	.	.	.
!	!	!	!	!LO:LB:g=original	!	!	!
=33	=33	=33	=33	=33	=33	=33	=33
4E\	tu-	1.c	.	1.e	ven-	1.g	fru-
4D\	.	.	.	.	.	.	.
4C\	.	.	.	.	.	.	.
4D\	.	.	.	.	.	.	.
4E\	.	.	.	.	.	.	.
4C\	-i	.	.	.	.	.	.
=34	=34	=34	=34	=34	=34	=34	=34
4F\	fruc-	1.c	-ctus	1.c	-tris	1.a	-ctus
4E\	.	.	.	.	.	.	.
4F\	.	.	.	.	.	.	.
4G\	.	.	.	.	.	.	.
4A\	.	.	.	.	.	.	.
4F\	-tus	.	.	.	.	.	.
=35	=35	=35	=35	=35	=35	=35	=35
1G	ven-	1B	fru-	2d\	ven-	2b\	ven-
.	.	.	.	2e\	.	1cc	.
2F\	-tris	2A\	-ctus	2f\	.	.	.
=36	=36	=36	=36	=36	=36	=36	=36
2E\	tu-	2c\	ven-	2g\	.	2g\	.
2D\	.	2d\	.	2f\	.	2b\	.
2C/	-i	2e\	.	2e\	.	2cc\	.
=37	=37	=37	=37	=37	=37	=37	=37
2A\	tu-	2F/	tris	2c\	-tris	2cc\	-tris
2G\	.	1G	tu-	1d	tu-	2cc\	tu-
2GG/	.	.	.	.	.	2b\	.
!LO:LB:g=original	!	!	!	!	!	!LO:LB:g=original	!
=38	=38	=38	=38	=38	=38	=38	=38
2C/	-i	2G/	-i	2e\	-i	2cc\	-i
2c\	al-	2e\	al-	2g\	al-	2cc\	al-
2G\	-le-	2d\	-le-	2g\	-le-	2b\	-le-
=39	=39	=39	=39	=39	=39	=39	=39
2E\	-lu-	2e\	-lu-	2g\	-lu-	2cc\	-lu-
2C/	-ia	2e\	-ia	2g\	-ia	2cc\	-ia
2E\	al-	2e\	al-	2g\	al-	2cc\	al-
!	!	!LO:LB:g=original	!	!	!	!	!
=40	=40	=40	=40	=40	=40	=40	=40
1F	.	2A/	-le-	2c\	-le-	2a\	-le-
.	.	1G	-lu-	2d\	.	2b\	.
2E\	-le-	.	.	2e\	-lu-	2cc\	.
!	!	!	!	!LO:LB:g=original	!	!	!
=41	=41	=41	=41	=41	=41	=41	=41
2F\	-lu-	2A/	-ia	1d	-ia	1cc	.
2G\	.	2G/	al-	.	.	.	.
2GG/	.	2G/	-le-	2d\	al-	2b\	-lu-
=42	=42	=42	=42	=42	=42	=42	=42
2C/	-ia	2G/	-lu-	2e\	-le-	2cc\	-ia
2C/	al-	2c\	-ia	2f\	.	2a\	al-
2C/	-le-	2c\	al-	2e\	-lu-	2g\	-le-
=43	=43	=43	=43	=43	=43	=43	=43
1.C	-lu-	1.c	-le-	1.f	.	1.a	-lu-
=44	=44	=44	=44	=44	=44	=44	=44
!	!	!LO:TX:a:t=2	!	!	!	!	!
0C	-ia.	0c	-luia.	0e	-ia	1.g	-ia.
.	.	.	.	.	.	2ryy	.
==	==	==	==	==	==	==	==
*-	*-	*-	*-	*-	*-	*-	*-
!!!system-decoration: [(s1,s2,s3,s4)]
!!!ENC: Filip Voros
!!!END: 2023-11-02
!!!ENC: Leszek Kubiak
!!!END: 2024-06-28
